T: Kelly The Boy From Killane
M: 4/4
L: 1/8
K: Gmaj
|: G>B |d2 Bd g2 ge | d2 BG E2 GA | B2 AB dc AF | G4 G2 :|
Bd |c2 ce g2 ge | d2 ge d2 Bd | e2 ce g2 ge | d6 G>B |
d2 Bd g2 ge | d2 BG E2 GA | B2 AB dc AF | G4 G2 |]
